X:01
T: Julia Clifford's/The Cordal
M: 6/8
L: 1/8
Z: Contributed 20030505034559 by Zina Lee zlee@ntw.net
K: D
|:BAF ~E3 | FEF DFA | BAF DFA | B2 A Bcd |
|BAF ~E3 | FEF DFA | d2 f edc | B2 A BcA :|
|:~d3 fed | cBc ecA | d2d fed | fed fga |
|d2e fed | c2c ecA | ded cdc | B2A BcA :|
